src/symbolic/actions/twitter-profile-symbolic.svg

<svg xmlns="http://www.w3.org/2000/svg" width="16" height="16"><path d="M8.01 1.69c-1.83 0-3.32 1.55-3.38 3.49-.04.01-.09.03-.13.06-.42.23-.53.94-.24 1.6.23.54.64.87 1.02.86.28 1.77 1.4 3.09 2.73 3.09h.01c1.34 0 2.46-1.32 2.74-3.09.37.01.78-.32 1.01-.86.29-.66.18-1.37-.24-1.6a.31.31 0 0 0-.13-.06c-.05-1.94-1.55-3.49-3.38-3.49h-.01zm2.39 9.39c-.29.68-1.28 1.2-2.45 1.2-1.17 0-2.15-.51-2.44-1.19-2.47.25-4.27.87-4.49 1.61v.02c0 .02-.01.05-.01.07 0 .02-.01.02-.01.04v1.82c0 .2.16.35.35.35h13.3c.19 0 .35-.15.35-.35v-1.81-.02c0-.05-.02-.08-.03-.12-.22-.75-2.06-1.38-4.57-1.62z" fill="#5d656b"/></svg>

<svg xmlns="http://www.w3.org/2000/svg" width="16" height="16" version="1.1">
 <path style="fill:#444444" d="M 8.01,1.69 C 6.18,1.69 4.69,3.24 4.63,5.18 4.59,5.19 4.54,5.21 4.5,5.24 4.08,5.47 3.97,6.18 4.26,6.84 4.49,7.38 4.9,7.71 5.28,7.7 5.56,9.47 6.68,10.79 8.01,10.79 8.02,10.79 8.02,10.79 8.02,10.79 9.36,10.79 10.48,9.47 10.76,7.7 11.13,7.71 11.54,7.38 11.77,6.84 12.06,6.18 11.95,5.47 11.53,5.24 11.49,5.21 11.45,5.19 11.4,5.18 11.35,3.24 9.85,1.69 8.02,1.69 8.02,1.69 8.02,1.69 8.01,1.69 Z M 10.4,11.08 C 10.11,11.76 9.12,12.28 7.95,12.28 6.78,12.28 5.8,11.77 5.51,11.09 3.04,11.34 1.24,11.96 1.02,12.7 1.02,12.7 1.02,12.71 1.02,12.72 1.02,12.74 1.01,12.77 1.01,12.79 1.01,12.81 1,12.81 1,12.83 1,12.83 1,12.83 1,12.84 V 14.65 C 1,14.85 1.16,15 1.35,15 H 14.65 C 14.84,15 15,14.85 15,14.65 V 12.84 C 15,12.83 15,12.82 15,12.82 15,12.77 14.98,12.74 14.97,12.7 14.75,11.95 12.91,11.32 10.4,11.08 Z"/>
</svg>
